dist/assets/images/special.svg

<?xml version="1.0" encoding="UTF-8"?>
<svg width="16px" height="23px" viewBox="0 0 16 23" version="1.1" xmlns="http://www.w3.org/2000/svg" xmlns:xlink="http://www.w3.org/1999/xlink">
    <!-- Generator: Sketch 52.5 (67469) - http://www.bohemiancoding.com/sketch -->
    <title>luke-carl-hartman-web-development-for-denali-innovationsmicrophone-alt-solid</title>
    <desc>Created with Sketch.</desc>
    <g id="Page-1" stroke="none" stroke-width="1" fill="none" fill-rule="evenodd">
        <g id="Catalog" transform="translate(-512.000000, -151.000000)" fill="#7FD2E6">
            <g id="Group-7" transform="translate(512.000000, 145.000000)">
                <g id="microphone-alt-solid" transform="translate(0.000000, 6.000000)">
                    <g id="Shape">
                        <path d="M14.7361179,8.7027027 L14.034398,8.7027027 C13.6466978,8.7027027 13.3326781,9.02260473 13.3326781,9.41756757 L13.3326781,11.5621622 C13.3326781,14.9041554 10.5043084,17.5857922 7.15798157,17.2533801 C4.24145823,16.963413 2.10515971,14.2924992 2.10515971,11.3074916 L2.10515971,9.41756757 C2.10515971,9.02260473 1.79114005,8.7027027 1.4034398,8.7027027 L0.701719902,8.7027027 C0.314019656,8.7027027 0,9.02260473 0,9.41756757 L0,11.2118784 C0,15.2169088 2.80556388,18.787212 6.66633907,19.3296157 L6.66633907,20.8554054 L4.21031941,20.8554054 C3.82261916,20.8554054 3.50859951,21.1753074 3.50859951,21.5702703 L3.50859951,22.2851351 C3.50859951,22.680098 3.82261916,23 4.21031941,23 L11.2275184,23 C11.6152187,23 11.9292383,22.680098 11.9292383,22.2851351 L11.9292383,21.5702703 C11.9292383,21.1753074 11.6152187,20.8554054 11.2275184,20.8554054 L8.77149877,20.8554054 L8.77149877,19.3465938 C12.5305246,18.8211681 15.4378378,15.5341301 15.4378378,11.5621622 L15.4378378,9.41756757 C15.4378378,9.02260473 15.1238182,8.7027027 14.7361179,8.7027027 Z M7.87027027,15.8513514 C10.2107928,15.8513514 12.1081081,13.9158653 12.1081081,11.5282555 L8.34128829,11.5282555 C8.08127928,11.5282555 7.87027027,11.3670401 7.87027027,11.1679975 L7.87027027,10.4474816 C7.87027027,10.248439 8.08127928,10.0872236 8.34128829,10.0872236 L12.1081081,10.0872236 L12.1081081,8.64619165 L8.34128829,8.64619165 C8.08127928,8.64619165 7.87027027,8.4849762 7.87027027,8.28593366 L7.87027027,7.56541769 C7.87027027,7.36637515 8.08127928,7.20515971 8.34128829,7.20515971 L12.1081081,7.20515971 L12.1081081,5.76412776 L8.34128829,5.76412776 C8.08127928,5.76412776 7.87027027,5.60291232 7.87027027,5.40386978 L7.87027027,4.68335381 C7.87027027,4.48431127 8.08127928,4.32309582 8.34128829,4.32309582 L12.1081081,4.32309582 C12.1081081,1.93548603 10.2107928,0 7.87027027,0 C5.52974775,0 3.63243243,1.93548603 3.63243243,4.32309582 L3.63243243,11.5282555 C3.63243243,13.9158653 5.52974775,15.8513514 7.87027027,15.8513514 Z" fill-rule="nonzero"></path>
                    </g>
                </g>
            </g>
        </g>
    </g>
</svg>

<svg width="16" height="23" xmlns="http://www.w3.org/2000/svg"><path d="M14.736 8.703h-.702a.708.708 0 0 0-.701.715v2.144c0 3.342-2.829 6.024-6.175 5.691-2.917-.29-5.053-2.96-5.053-5.946v-1.89a.708.708 0 0 0-.702-.714H.702A.708.708 0 0 0 0 9.418v1.794c0 4.005 2.806 7.575 6.666 8.118v1.525H4.21a.708.708 0 0 0-.701.715v.715c0 .395.314.715.701.715h7.018c.387 0 .701-.32.701-.715v-.715a.708.708 0 0 0-.701-.715H8.77v-1.508c3.76-.526 6.667-3.813 6.667-7.785V9.418a.708.708 0 0 0-.702-.715zM7.87 15.85c2.34 0 4.238-1.935 4.238-4.323H8.341c-.26 0-.47-.161-.47-.36v-.72c0-.2.21-.36.47-.36h3.767V8.645H8.341c-.26 0-.47-.161-.47-.36v-.72c0-.2.21-.36.47-.36h3.767V5.763H8.341c-.26 0-.47-.161-.47-.36v-.72c0-.2.21-.36.47-.36h3.767C12.108 1.934 10.211 0 7.87 0 5.53 0 3.632 1.935 3.632 4.323v7.205c0 2.388 1.898 4.323 4.238 4.323z" fill="#7FD2E6"/></svg>
